logos/routable.svg

<svg xmlns="http://www.w3.org/2000/svg" title="Routable logo" viewBox="0 0 95 16" fill="none">
	<path
		d="M21.6846 4.50598C19.7293 4.50598 17.9507 5.16863 16.664 6.37345C15.4278 7.53008 14.7466 9.09634 14.7466 10.759C14.7466 13.8915 17.0677 16 20.5367 16C22.4919 16 24.2706 15.3373 25.5572 14.1325C26.7935 12.9759 27.4746 11.4096 27.4746 9.74695C27.462 6.61442 25.141 4.50598 21.6846 4.50598ZM20.8268 12.7951C19.313 12.7951 18.6319 11.6626 18.6319 10.5421C18.6319 8.96381 19.8429 7.72285 21.3818 7.72285C22.6937 7.72285 23.602 8.66261 23.602 9.99996C23.602 11.5301 22.3531 12.7951 20.8268 12.7951Z"
		fill="currentColor"
	/>
	<path
		d="M36.3174 10.253C36.2164 11.2049 35.7749 12.7832 34.0467 12.7832C33.5422 12.7832 33.1637 12.6506 32.9241 12.3856C32.5708 12.0121 32.4447 11.3494 32.5456 10.3856L33.088 5.44582C33.1259 5.08437 32.8357 4.78317 32.4573 4.78317H29.884C29.556 4.78317 29.2911 5.01208 29.2532 5.32534L28.6099 11.2169C28.4459 12.7109 28.4837 13.8193 29.1271 14.6868C29.7452 15.5181 30.8174 15.9639 32.2303 15.9639C33.7314 15.9639 35.0181 15.4699 35.838 14.5904L35.7876 15.0362C35.7497 15.3856 36.0398 15.6988 36.4183 15.6988H39.0169C39.3448 15.6988 39.6098 15.4699 39.6476 15.1567L40.7072 5.43377C40.7451 5.08437 40.4549 4.77112 40.0765 4.77112H37.4779C37.1499 4.77112 36.885 5.00003 36.8472 5.31329L36.3174 10.253Z"
		fill="currentColor"
	/>
	<path
		d="M42.5111 15.0723L43.3689 7.62647H42.1831C41.8047 7.62647 41.5146 7.31322 41.5524 6.96382L41.729 5.33731C41.7668 5.03611 42.0317 4.79514 42.3597 4.79514H43.6842L44.151 0.650567C44.1888 0.349362 44.4537 0.108398 44.7817 0.108398H47.4812C47.8597 0.108398 48.1498 0.421651 48.1119 0.771049L47.6578 4.7831H49.0959C49.4743 4.7831 49.7644 5.09635 49.7266 5.44575L49.55 7.07225C49.5122 7.37346 49.2473 7.61442 48.9193 7.61442H47.3425L46.636 15.1807C46.6108 15.4939 46.3333 15.7349 46.0053 15.7349H43.1418C42.7508 15.7349 42.4606 15.4337 42.5111 15.0723Z"
		fill="currentColor"
	/>
	<path
		d="M59.1245 5.95184C58.4685 5.06027 57.2701 4.53015 55.8825 4.53015C52.5397 4.53015 49.8149 7.34943 49.8149 10.8073C49.8149 13.8073 51.8585 15.988 54.6841 15.988C56.0465 15.988 57.3332 15.4699 58.1658 14.6145L58.1153 15.0482C58.0775 15.4097 58.3676 15.7229 58.746 15.7229H61.3446C61.6726 15.7229 61.9375 15.494 61.9753 15.1807L63.0476 5.45786C63.0854 5.09642 62.7953 4.79521 62.4169 4.79521H59.8183C59.4903 4.79521 59.2254 5.02413 59.1875 5.33738L59.1245 5.95184ZM58.683 9.98798C58.683 11.5301 57.4341 12.7952 55.9078 12.7952C54.5958 12.7952 53.6876 11.8675 53.6876 10.5422C53.6876 8.98798 54.9364 7.72292 56.4628 7.72292C57.7621 7.71087 58.683 8.65063 58.683 9.98798Z"
		fill="currentColor"
	/>
	<path
		d="M71.865 4.53016C70.49 4.53016 69.1907 5.04823 68.3455 5.92775L68.9384 0.674735C68.9762 0.31329 68.6861 0.012085 68.3077 0.012085H65.7217C65.3937 0.012085 65.1288 0.241001 65.091 0.554254L63.4889 15.0603C63.4511 15.4217 63.7412 15.7229 64.1196 15.7229H66.7182C67.0462 15.7229 67.3111 15.494 67.349 15.1808L67.412 14.5783C67.9671 15.3133 69.0393 15.988 70.6792 15.988C74.022 15.988 76.7468 13.1687 76.7468 9.71088C76.7342 6.69883 74.6906 4.53016 71.865 4.53016ZM72.8489 9.98799C72.8489 11.5302 71.6001 12.7952 70.0737 12.7952C68.7744 12.7952 67.8788 11.8675 67.8788 10.5422C67.8788 8.98799 69.115 7.72293 70.6287 7.72293C72.1551 7.71088 72.8489 8.8916 72.8489 9.98799Z"
		fill="currentColor"
	/>
	<path
		d="M78.084 15.7108H80.6826C81.0106 15.7108 81.2755 15.4819 81.3133 15.1687L82.9154 0.662651C82.9532 0.301205 82.6631 0 82.2846 0H79.686C79.3581 0 79.0932 0.228916 79.0553 0.542169L77.4533 15.0482C77.4154 15.4096 77.7056 15.7108 78.084 15.7108Z"
		fill="currentColor"
	/>
	<path
		d="M89.5381 4.50598C87.5702 4.50598 85.8799 5.15658 84.6689 6.3855C83.5336 7.54213 82.9028 9.13249 82.9028 10.8674C82.9028 14.0843 84.9842 16 88.4785 16C91.4807 16 93.9153 14.4939 94.5334 12.253C94.5587 12.1445 94.483 12.0482 94.3694 12.0482H91.1906C90.9761 12.0482 90.7743 12.1445 90.6608 12.3012C90.3076 12.7831 89.5885 13.253 88.7181 13.253C88.0243 13.253 87.5071 13.0843 87.1665 12.7469C86.8764 12.4578 86.725 12.0361 86.6998 11.4819C86.6998 11.3494 86.8133 11.2289 86.9521 11.2289H94.4451C94.5587 11.2289 94.6596 11.1566 94.6848 11.0481C94.7857 10.6626 95.0002 9.75899 95.0002 9.21682C95.0002 6.39755 92.8052 4.50598 89.5381 4.50598ZM87.2422 8.96381C87.0656 8.96381 86.9521 8.80719 87.0026 8.65056C87.3053 7.67466 88.1757 7.07225 89.3236 7.07225C89.9543 7.07225 90.4589 7.26502 90.7995 7.61442C91.0644 7.89152 91.2032 8.26502 91.2158 8.72285C91.2158 8.85538 91.1023 8.96381 90.9635 8.96381H87.2422Z"
		fill="currentColor"
	/>
	<path
		d="M11.1011 10.7711C13.397 9.72289 14.8098 7.61446 14.8098 5.21687C14.8098 3.79518 14.2926 2.49398 13.3718 1.54217C12.3752 0.53012 10.9876 0 9.37296 0H3.01524C2.68726 0 2.42235 0.228916 2.38451 0.542169L1.87993 5.09639C2.24575 5.10843 2.61157 5.09639 2.96478 5.07229C3.67119 5.01205 4.36499 4.89157 5.03356 4.72289C5.26062 4.66265 5.48768 4.59036 5.70213 4.51807L5.92919 2.49398C5.94181 2.38554 6.08057 2.3253 6.16887 2.39759L10.2686 5.39759C10.3443 5.45783 10.3443 5.57831 10.256 5.62651L5.51291 8.6265C5.412 8.68675 5.27324 8.61446 5.28585 8.49397L5.46245 6.93976C4.6299 7.01205 3.79734 7.0241 2.97739 6.96385C2.13222 6.89157 1.32489 6.74699 0.542789 6.53012C0.441873 6.50602 0.353571 6.46988 0.252655 6.44578C0.0886659 6.39759 -0.0500939 6.57831 0.0508223 6.71084L1.47626 8.54217L0.795079 15.0482C0.757236 15.4096 1.04737 15.7108 1.42581 15.7108H4.22623C4.55421 15.7108 4.81911 15.4819 4.85696 15.1687L5.23539 11.6627C5.24801 11.5422 5.36154 11.4458 5.48768 11.4458H6.59776C6.68606 11.4458 6.77436 11.494 6.82482 11.5783L8.96929 15.3976C9.08282 15.5904 9.29727 15.7108 9.52433 15.7108H12.8167C13.2961 15.7108 13.5988 15.2289 13.3718 14.8313L11.1011 10.7711Z"
		fill="currentColor"
	/>
</svg>

<svg fill="none" viewBox="0 0 95 16" xmlns="http://www.w3.org/2000/svg">
  <path fill="currentColor" d="M21.685 4.506c-1.956 0-3.734.663-5.021 1.867a5.969 5.969 0 0 0-1.917 4.386c0 3.133 2.32 5.241 5.79 5.241 1.955 0 3.734-.663 5.02-1.867a5.968 5.968 0 0 0 1.918-4.386c-.013-3.133-2.334-5.241-5.79-5.241Zm-.858 8.29c-1.514 0-2.195-1.133-2.195-2.254 0-1.578 1.21-2.82 2.75-2.82 1.312 0 2.22.94 2.22 2.278 0 1.53-1.249 2.795-2.775 2.795Z"/>
  <path fill="currentColor" d="M36.317 10.253c-.1.952-.542 2.53-2.27 2.53-.505 0-.883-.132-1.123-.397-.353-.374-.48-1.037-.378-2l.542-4.94c.038-.362-.252-.663-.63-.663h-2.574a.62.62 0 0 0-.63.542l-.644 5.892c-.164 1.494-.126 2.602.517 3.47.618.831 1.69 1.277 3.103 1.277 1.501 0 2.788-.494 3.608-1.374l-.05.446c-.038.35.252.663.63.663h2.599a.62.62 0 0 0 .63-.542l1.06-9.723c.038-.35-.252-.663-.63-.663h-2.6a.62.62 0 0 0-.63.542l-.53 4.94Z"/>
  <path fill="currentColor" d="m42.511 15.072.858-7.446h-1.186c-.378 0-.668-.313-.63-.662l.176-1.627a.63.63 0 0 1 .63-.542h1.325l.467-4.144a.63.63 0 0 1 .63-.543h2.7c.379 0 .669.314.63.663l-.453 4.012h1.438c.378 0 .668.313.63.663l-.176 1.626a.63.63 0 0 1-.63.542h-1.578l-.706 7.567c-.025.313-.303.554-.63.554h-2.864c-.391 0-.681-.301-.63-.663Z"/>
  <path fill="currentColor" d="M59.124 5.952c-.656-.892-1.854-1.422-3.242-1.422-3.342 0-6.067 2.82-6.067 6.277 0 3 2.044 5.181 4.87 5.181 1.361 0 2.648-.518 3.48-1.373l-.05.433a.62.62 0 0 0 .631.675h2.599a.62.62 0 0 0 .63-.542l1.073-9.723c.037-.362-.253-.663-.631-.663h-2.599a.62.62 0 0 0-.63.542l-.064.615Zm-.441 4.036c0 1.542-1.249 2.807-2.775 2.807-1.312 0-2.22-.928-2.22-2.253 0-1.554 1.248-2.82 2.775-2.82 1.3-.011 2.22.929 2.22 2.266Z"/>
  <path fill="currentColor" d="M71.865 4.53c-1.375 0-2.674.518-3.52 1.398l.593-5.253c.038-.362-.252-.663-.63-.663h-2.586a.62.62 0 0 0-.631.542L63.489 15.06c-.038.362.252.663.63.663h2.6a.62.62 0 0 0 .63-.542l.063-.603c.555.735 1.627 1.41 3.267 1.41 3.343 0 6.068-2.82 6.068-6.277-.013-3.012-2.056-5.18-4.882-5.18Zm.984 5.458c0 1.542-1.249 2.807-2.775 2.807-1.3 0-2.195-.928-2.195-2.253 0-1.554 1.236-2.82 2.75-2.82 1.526-.011 2.22 1.17 2.22 2.266Z"/>
  <path fill="currentColor" d="M78.084 15.71h2.599a.62.62 0 0 0 .63-.541L82.915.663C82.953.3 82.663 0 82.285 0h-2.599a.62.62 0 0 0-.63.542l-1.603 14.506c-.038.362.253.663.631.663Z"/>
  <path fill="currentColor" d="M89.538 4.506c-1.968 0-3.658.65-4.87 1.88-1.134 1.156-1.765 2.746-1.765 4.481 0 3.217 2.081 5.133 5.575 5.133 3.003 0 5.437-1.506 6.055-3.747a.163.163 0 0 0-.164-.205h-3.178a.655.655 0 0 0-.53.253c-.353.482-1.073.952-1.943.952-.694 0-1.21-.169-1.552-.506-.29-.29-.441-.71-.466-1.265 0-.133.113-.253.252-.253h7.493a.241.241 0 0 0 .24-.18c.1-.386.315-1.29.315-1.832 0-2.82-2.195-4.711-5.462-4.711Zm-2.296 4.458c-.176 0-.29-.157-.24-.313.303-.976 1.174-1.579 2.322-1.579.63 0 1.135.193 1.475.542.265.278.404.651.417 1.109a.248.248 0 0 1-.252.24h-3.722Z"/>
  <path fill="currentColor" d="M11.101 10.771c2.296-1.048 3.709-3.157 3.709-5.554 0-1.422-.517-2.723-1.438-3.675C12.375.53 10.988 0 9.373 0H3.015a.62.62 0 0 0-.63.542L1.88 5.096c.366.012.732 0 1.085-.024.706-.06 1.4-.18 2.069-.35.227-.06.454-.132.668-.204l.227-2.024c.013-.108.152-.169.24-.096l4.1 3c.075.06.075.18-.013.229l-4.743 3c-.101.06-.24-.013-.227-.133l.176-1.554c-.832.072-1.665.084-2.485.024A13.315 13.315 0 0 1 .543 6.53c-.101-.024-.19-.06-.29-.084-.164-.048-.303.132-.202.265l1.425 1.831-.68 6.506c-.039.362.251.663.63.663h2.8a.62.62 0 0 0 .631-.542l.378-3.506a.254.254 0 0 1 .253-.217h1.11c.088 0 .176.048.227.132l2.144 3.82a.647.647 0 0 0 .555.313h3.293c.48 0 .782-.482.555-.88l-2.27-4.06Z"/>
</svg>
